;FLAVOR:Marlin
;TIME:3396
;Filament used: 2.24199m
;Layer height: 0.2
;MINX:93.856
;MINY:105.381
;MINZ:0.2
;MAXX:141.139
;MAXY:134.827
;MAXZ:34
;Generated with Cura_SteamEngine main
M140 S80
M105
M190 S80
M104 S240
M105
M109 S240
M82 ;absolute extrusion mode
; Ender 3 Custom Start G-code
G92 E0 ; Reset Extruder
G28 ; Home all axes
G29 ; ABL
G1 Z2.0 F3000 ; Move Z Axis up little to prevent scratching of Heat Bed
G1 X0.1 Y20 Z0.3 F5000.0 ; Move to start position
G1 X0.1 Y200.0 Z0.3 F1500.0 E15 ; Draw the first line
G1 X0.4 Y200.0 Z0.3 F5000.0 ; Move to side a little
G1 X0.4 Y20 Z0.3 F1500.0 E30 ; Draw the second line
G92 E0 ; Reset Extruder
G1 Z2.0 F3000 ; Move Z Axis up little to prevent scratching of Heat Bed
G1 X5 Y20 Z0.3 F5000.0 ; Move over to prevent blob squish
G92 E0
G92 E0
G1 F2700 E-5
;LAYER_COUNT:170
;LAYER:0
M107
G0 F6000 X97.675 Y108.121 Z0.2
G0 X93.856 Y117.662
;TYPE:SKIRT
G1 F2700 E0
G1 F1200 X93.864 Y116.915 E0.02485
G1 X93.898 Y116.291 E0.04563
G1 X93.966 Y115.476 E0.07283
G1 X94.084 Y114.546 E0.10401
G1 X94.28 Y113.629 E0.1352
G1 X94.554 Y112.732 E0.1664
G1 X94.904 Y111.862 E0.19759
G1 X95.326 Y111.024 E0.22879
G1 X95.818 Y110.226 E0.25997
G1 X96.376 Y109.472 E0.29117
G1 X96.997 Y108.769 E0.32237
G1 X97.675 Y108.121 E0.35356
G1 X98.406 Y107.533 E0.38477
G1 X99.184 Y107.01 E0.41595
G1 X100.004 Y106.555 E0.44714
G1 X100.86 Y106.171 E0.47834
G1 X101.745 Y105.862 E0.50952
G1 X102.654 Y105.629 E0.54073
G1 X103.579 Y105.474 E0.57192
G1 X104.756 Y105.392 E0.61117
G1 X105.396 Y105.382 E0.63246
G1 X110.622 Y105.382 E0.80627
G1 X111.328 Y105.392 E0.82976
G1 X112.535 Y105.44 E0.86993
G1 X113.731 Y105.508 E0.90978
G1 X116.281 Y105.579 E0.99462
G1 X118.804 Y105.579 E1.07854
G1 X121.304 Y105.507 E1.16172
G1 X123.241 Y105.406 E1.22624
G1 X124.157 Y105.381 E1.25671
G1 X129.528 Y105.381 E1.43535
G1 X130.233 Y105.391 E1.4588
G1 X131.169 Y105.444 E1.48999
G1 X132.098 Y105.577 E1.5212
G1 X133.012 Y105.789 E1.55241
G1 X133.904 Y106.077 E1.58358
G1 X134.768 Y106.441 E1.61477
G1 X135.599 Y106.876 E1.64596
G1 X136.389 Y107.381 E1.67715
G1 X137.134 Y107.952 E1.70837
G1 X137.827 Y108.584 E1.73956
G1 X138.464 Y109.272 E1.77075
G1 X139.04 Y110.012 E1.80194
G1 X139.55 Y110.799 E1.83313
G1 X139.992 Y111.626 E1.86432
G1 X140.362 Y112.488 E1.89552
G1 X140.657 Y113.379 E1.92673
G1 X140.875 Y114.291 E1.95792
G1 X141.004 Y115.129 E1.98612
G1 X141.074 Y115.806 E2.00876
G1 X141.103 Y116.195 E2.02173
G1 X141.132 Y116.901 E2.04523
G1 X141.139 Y117.586 E2.06802
G1 X141.128 Y118.292 E2.0915
G1 X141.098 Y118.843 E2.10986
G1 X141.034 Y119.58 E2.13446
G1 X140.99 Y119.97 E2.14752
G1 X140.884 Y120.735 E2.1732
G1 X140.783 Y121.333 E2.19337
G1 X140.609 Y122.143 E2.22093
G1 X140.48 Y122.655 E2.23849
G1 X140.246 Y123.463 E2.26647
G1 X139.989 Y124.263 E2.29442
G1 X139.684 Y125.095 E2.32389
G1 X139.573 Y125.364 E2.33357
G1 X139.324 Y125.923 E2.35392
G1 X138.951 Y126.701 E2.38262
G1 X138.696 Y127.201 E2.40129
G1 X138.491 Y127.578 E2.41556
G1 X138.164 Y128.139 E2.43716
G1 X137.903 Y128.558 E2.45358
G1 X137.574 Y129.055 E2.4734
G1 X137.314 Y129.426 E2.48847
G1 X136.998 Y129.854 E2.50616
G1 X136.487 Y130.5 E2.53356
G1 X136.152 Y130.898 E2.55086
G1 X135.518 Y131.589 E2.58205
G1 X134.827 Y132.223 E2.61324
G1 X134.085 Y132.797 E2.64444
G1 X133.297 Y133.305 E2.67563
G1 X132.468 Y133.744 E2.70683
G1 X131.605 Y134.111 E2.73802
G1 X130.714 Y134.403 E2.7692
G1 X129.801 Y134.618 E2.8004
G1 X128.873 Y134.755 E2.8316
G1 X128.134 Y134.807 E2.85624
G1 X127.53 Y134.822 E2.87634
G1 X124.554 Y134.826 E2.97532
G1 X123.381 Y134.808 E3.01434
G1 X122.679 Y134.779 E3.03771
G1 X121.131 Y134.694 E3.08927
G1 X118.613 Y134.627 E3.17305
G1 X116.138 Y134.632 E3.25537
G1 X112.265 Y134.773 E3.38427
G1 X111.817 Y134.799 E3.39919
G1 X110.843 Y134.827 E3.4316
G1 X107.814 Y134.826 E3.53235
G1 X107.111 Y134.816 E3.55573
G1 X106.174 Y134.763 E3.58695
G1 X105.246 Y134.63 E3.61813
G1 X104.332 Y134.418 E3.64933
G1 X103.44 Y134.13 E3.68051
G1 X102.575 Y133.766 E3.71172
G1 X101.745 Y133.33 E3.74291
G1 X100.954 Y132.825 E3.77412
G1 X100.21 Y132.255 E3.80529
G1 X99.517 Y131.623 E3.83649
G1 X98.853 Y130.903 E3.86906
G1 X98.474 Y130.453 E3.88863
G1 X98.026 Y129.884 E3.91272
G1 X97.698 Y129.438 E3.93113
G1 X97.241 Y128.776 E3.95789
G1 X96.766 Y128.019 E3.98761
G1 X96.411 Y127.396 E4.01146
G1 X96.004 Y126.606 E4.04102
G1 X95.638 Y125.84 E4.06926
G1 X95.296 Y125.047 E4.09798
G1 X95.146 Y124.657 E4.11188
G1 X94.975 Y124.179 E4.12876
G1 X94.841 Y123.776 E4.14289
G1 X94.693 Y123.296 E4.15959
G1 X94.565 Y122.843 E4.17525
G1 X94.36 Y122.013 E4.20369
G1 X94.244 Y121.457 E4.22258
G1 X94.144 Y120.902 E4.24133
G1 X94.063 Y120.375 E4.25907
G1 X93.99 Y119.816 E4.27782
G1 X93.923 Y119.15 E4.30008
G1 X93.89 Y118.672 E4.31602
G1 X93.866 Y118.143 E4.33363
G1 X93.856 Y117.662 E4.34963
G0 F6000 X94.256 Y117.653
G1 F1200 X94.264 Y116.926 E4.37381
G1 X94.297 Y116.325 E4.39383
G1 X94.365 Y115.51 E4.42103
G1 X94.481 Y114.596 E4.45168
G1 X94.676 Y113.697 E4.48227
G1 X94.949 Y112.817 E4.51292
G1 X95.296 Y111.965 E4.54352
G1 X95.717 Y111.146 E4.57414
G1 X96.207 Y110.366 E4.60478
G1 X96.762 Y109.632 E4.63539
G1 X97.38 Y108.949 E4.66602
G1 X98.054 Y108.322 E4.69664
G1 X98.78 Y107.756 E4.72726
G1 X99.552 Y107.255 E4.75787
G1 X100.365 Y106.823 E4.78849
G1 X101.213 Y106.463 E4.81913
G1 X102.088 Y106.178 E4.84974
G1 X102.985 Y105.971 E4.88036
G1 X103.897 Y105.841 E4.911
G1 X104.762 Y105.792 E4.93981
G1 X105.402 Y105.782 E4.9611
G1 X110.616 Y105.782 E5.13452
G1 X111.615 Y105.8 E5.16775
G1 X112.356 Y105.831 E5.19242
G1 X113.731 Y105.908 E5.23822
G1 X116.27 Y105.979 E5.3227
G1 X118.781 Y105.979 E5.40622
G1 X121.337 Y105.906 E5.49127
G1 X123.262 Y105.805 E5.55538
G1 X124.157 Y105.781 E5.58516
G1 X129.37 Y105.78 E5.75855
G1 X130.227 Y105.791 E5.78705
G1 X131.146 Y105.844 E5.81767
G1 X132.058 Y105.977 E5.84832
G1 X132.954 Y106.188 E5.87894
G1 X133.828 Y106.476 E5.90955
G1 X134.674 Y106.839 E5.94016
G1 X135.486 Y107.274 E5.9708
G1 X136.256 Y107.777 E6.00139
G1 X136.98 Y108.346 E6.03202
G1 X137.652 Y108.975 E6.06264
G1 X138.267 Y109.661 E6.09328
G1 X138.82 Y110.397 E6.1239
G1 X139.307 Y111.178 E6.15451
G1 X139.725 Y111.999 E6.18515
G1 X140.069 Y112.852 E6.21574
G1 X140.339 Y113.733 E6.24639
G1 X140.53 Y114.633 E6.27699
G1 X140.607 Y115.175 E6.2952
G1 X140.675 Y115.836 E6.3173
G1 X140.704 Y116.225 E6.33027
G1 X140.732 Y116.905 E6.35291
G1 X140.739 Y117.59 E6.37569
G1 X140.728 Y118.281 E6.39868
G1 X140.699 Y118.812 E6.41637
G1 X140.636 Y119.535 E6.44051
G1 X140.592 Y119.925 E6.45356
G1 X140.488 Y120.678 E6.47884
G1 X140.389 Y121.262 E6.49854
G1 X140.219 Y122.054 E6.52549
G1 X140.094 Y122.548 E6.54243
G1 X139.865 Y123.341 E6.56989
G1 X139.608 Y124.141 E6.59783
G1 X139.315 Y124.942 E6.6262
G1 X139.204 Y125.211 E6.63588
G1 X138.963 Y125.751 E6.65555
G1 X138.59 Y126.529 E6.68425
G1 X138.344 Y127.01 E6.70221
G1 X138.139 Y127.387 E6.71649
G1 X137.824 Y127.927 E6.73728
G1 X137.563 Y128.346 E6.7537
G1 X137.247 Y128.825 E6.77279
G1 X136.987 Y129.196 E6.78785
G1 X136.682 Y129.609 E6.80493
G1 X136.181 Y130.242 E6.83178
G1 X135.846 Y130.64 E6.84908
G1 X135.223 Y131.318 E6.87971
G1 X134.543 Y131.939 E6.91034
G1 X133.813 Y132.499 E6.94094
G1 X133.036 Y132.994 E6.97158
G1 X132.22 Y133.419 E7.00218
G1 X131.369 Y133.772 E7.03282
G1 X130.491 Y134.05 E7.06345
G1 X129.593 Y134.25 E7.09405
G1 X128.68 Y134.372 E7.12469
G1 X128.119 Y134.407 E7.14338
G1 X127.529 Y134.422 E7.16301
G1 X124.553 Y134.426 E7.262
G1 X123.397 Y134.408 E7.30045
G1 X122.55 Y134.372 E7.32865
G1 X121.128 Y134.294 E7.37601
G1 X118.623 Y134.227 E7.45936
G1 X116.122 Y134.232 E7.54254
G1 X112.276 Y134.372 E7.67055
G1 X111.794 Y134.4 E7.68661
G1 X110.843 Y134.427 E7.71825
G1 X107.819 Y134.426 E7.81883
G1 X107.116 Y134.416 E7.84221
G1 X106.197 Y134.363 E7.87283
G1 X105.286 Y134.23 E7.90345
G1 X104.39 Y134.019 E7.93407
G1 X103.516 Y133.731 E7.96467
G1 X102.669 Y133.368 E7.99532
G1 X101.858 Y132.933 E8.02593
G1 X101.087 Y132.429 E8.05657
G1 X100.363 Y131.861 E8.08717
G1 X99.691 Y131.231 E8.11781
G1 X99.159 Y130.645 E8.14414
G1 X98.78 Y130.195 E8.1637
G1 X98.349 Y129.647 E8.18689
G1 X98.021 Y129.201 E8.20531
G1 X97.573 Y128.553 E8.23151
G1 X97.107 Y127.81 E8.26068
G1 X96.764 Y127.21 E8.28367
G1 X96.365 Y126.434 E8.31269
G1 X95.999 Y125.668 E8.34092
G1 X95.67 Y124.903 E8.36862
G1 X95.354 Y124.053 E8.39878
G1 X95.22 Y123.65 E8.41291
G1 X95.078 Y123.187 E8.42901
G1 X94.95 Y122.734 E8.44467
G1 X94.749 Y121.922 E8.47249
G1 X94.638 Y121.386 E8.4907
G1 X94.538 Y120.831 E8.50946
G1 X94.459 Y120.324 E8.52652
G1 X94.386 Y119.765 E8.54527
G1 X94.322 Y119.122 E8.56676
G1 X94.289 Y118.644 E8.5827
G1 X94.266 Y118.134 E8.59968
G1 X94.256 Y117.653 E8.61568
G0 F6000 X94.656 Y117.645
G1 F1200 X94.664 Y116.936 E8.63927
G1 X94.695 Y116.358 E8.65852
G1 X94.763 Y115.543 E8.68572
G1 X94.878 Y114.647 E8.71576
G1 X95.072 Y113.765 E8.7458
G1 X95.343 Y112.904 E8.77582
G1 X95.689 Y112.069 E8.80589
G1 X96.107 Y111.269 E8.83591
G1 X96.595 Y110.509 E8.86595
G1 X97.148 Y109.795 E8.89598
G1 X97.762 Y109.133 E8.92601
G1 X98.432 Y108.527 E8.95606
G1 X99.153 Y107.983 E8.9861
G1 X99.919 Y107.505 E9.01613
G1 X100.725 Y107.097 E9.04618
G1 X101.563 Y106.762 E9.0762
G1 X102.428 Y106.502 E9.10624
G1 X103.313 Y106.32 E9.13629
G1 X104.21 Y106.216 E9.16632
G1 X104.769 Y106.192 E9.18493
G1 X105.409 Y106.182 E9.20622
G1 X110.61 Y106.182 E9.37921
G1 X111.598 Y106.2 E9.41207
G1 X112.49 Y106.238 E9.44177
G1 X113.733 Y106.308 E9.48318
G1 X116.259 Y106.379 E9.56723
G1 X118.793 Y106.379 E9.65151
G1 X121.369 Y106.305 E9.73722
G1 X123.283 Y106.205 E9.80097
G1 X123.862 Y106.185 E9.82024
G1 X129.37 Y106.18 E10.00343
G1 X130.222 Y106.191 E10.03177
G1 X131.123 Y106.244 E10.06179
G1 X132.017 Y106.376 E10.09185
G1 X132.895 Y106.587 E10.12188
G1 X133.751 Y106.875 E10.15192
G1 X134.578 Y107.237 E10.18195
G1 X135.37 Y107.671 E10.21199
G1 X136.121 Y108.173 E10.24203
G1 X136.824 Y108.74 E10.27207
G1 X137.474 Y109.367 E10.30211
G1 X138.066 Y110.049 E10.33214
G1 X138.596 Y110.78 E10.36218
G1 X139.059 Y111.556 E10.39223
G1 X139.451 Y112.369 E10.42225
G1 X139.77 Y113.214 E10.45229
G1 X140.013 Y114.084 E10.48234
G1 X140.21 Y115.221 E10.52072
G1 X140.276 Y115.866 E10.54228
G1 X140.305 Y116.255 E10.55525
G1 X140.332 Y116.909 E10.57702
G1 X140.339 Y117.594 E10.59981
G1 X140.328 Y118.269 E10.62226
G1 X140.3 Y118.78 E10.63928
G1 X140.239 Y119.491 E10.66302
G1 X140.154 Y120.2 E10.68677
G1 X140.093 Y120.621 E10.70092
G1 X139.996 Y121.19 E10.72012
G1 X139.829 Y121.966 E10.74652
G1 X139.709 Y122.44 E10.76278
G1 X139.484 Y123.219 E10.78975
G1 X139.227 Y124.019 E10.8177
G1 X138.945 Y124.79 E10.845
G1 X138.834 Y125.059 E10.85468
G1 X138.603 Y125.578 E10.87357
G1 X138.23 Y126.356 E10.90227
G1 X137.993 Y126.819 E10.91957
G1 X137.788 Y127.196 E10.93384
G1 X137.485 Y127.716 E10.95386
G1 X137.224 Y128.135 E10.97028
G1 X136.919 Y128.596 E10.98866
G1 X136.659 Y128.967 E11.00373
G1 X136.366 Y129.364 E11.02014
G1 X135.875 Y129.984 E11.04645
G1 X135.54 Y130.382 E11.06375
G1 X134.928 Y131.047 E11.09381
G1 X134.26 Y131.655 E11.12385
G1 X133.541 Y132.201 E11.15388
G1 X132.776 Y132.682 E11.18394
G1 X131.972 Y133.093 E11.21397
G1 X131.135 Y133.431 E11.24399
G1 X130.271 Y133.694 E11.27403
G1 X129.387 Y133.879 E11.30407
G1 X128.105 Y134.007 E11.34692
G1 X127.529 Y134.022 E11.36608
G1 X124.553 Y134.026 E11.46507
G1 X123.705 Y134.016 E11.49327
G1 X122.572 Y133.973 E11.53098
G1 X121.126 Y133.893 E11.57915
G1 X118.632 Y133.827 E11.66213
G1 X116.108 Y133.832 E11.74608
G1 X112.238 Y133.973 E11.87488
G1 X111.483 Y134.013 E11.90003
G1 X110.843 Y134.027 E11.92132
G1 X107.825 Y134.026 E12.0217
G1 X107.122 Y134.016 E12.04508
G1 X106.22 Y133.963 E12.07514
G1 X105.327 Y133.831 E12.10516
G1 X104.449 Y133.62 E12.13519
G1 X103.593 Y133.332 E12.16523
G1 X102.766 Y132.97 E12.19526
G1 X101.974 Y132.536 E12.2253
G1 X101.223 Y132.034 E12.25534
G1 X100.52 Y131.467 E12.28538
G1 X99.87 Y130.84 E12.31542
G1 X99.465 Y130.388 E12.3356
G1 X99.086 Y129.938 E12.35517
G1 X98.671 Y129.41 E12.37751
G1 X98.343 Y128.964 E12.39592
G1 X98.096 Y128.613 E12.4102
G1 X97.676 Y127.974 E12.43563
G1 X97.447 Y127.601 E12.45019
G1 X97.118 Y127.023 E12.47231
G1 X96.726 Y126.261 E12.50081
G1 X96.36 Y125.495 E12.52905
G1 X96.043 Y124.76 E12.55567
G1 X95.893 Y124.37 E12.56957
G1 X95.734 Y123.926 E12.58525
G1 X95.463 Y123.079 E12.61483
G1 X95.335 Y122.626 E12.63049
G1 X95.139 Y121.831 E12.65772
G1 X95.032 Y121.315 E12.67525
G1 X94.932 Y120.76 E12.69401
G1 X94.856 Y120.272 E12.71043
G1 X94.783 Y119.713 E12.72918
G1 X94.721 Y119.095 E12.74984
G1 X94.688 Y118.617 E12.76578
G1 X94.666 Y118.126 E12.78212
G1 X94.656 Y117.645 E12.79813
G1 F2700 E7.79813
;MESH:Middle.stl
G0 F6000 X104.82 Y121.039
G0 X105.841 Y120.679
G0 X108.004 Y122.263
G0 X109.772 Y122.427
;TYPE:WALL-INNER
G1 F2700 E12.79813
G1 F1200 X109.773 Y119.4 E12.8988
G1 X109.773 Y117.781 E12.95265
G1 X106.247 Y117.781 E13.06993
G1 X106.301 Y118.414 E13.09106
G1 X106.38 Y118.953 E13.10918
G1 X106.429 Y119.202 E13.11762
G1 X106.538 Y119.645 E13.13279
G1 X106.643 Y120.001 E13.14513
G1 X106.775 Y120.372 E13.15823
G1 X106.899 Y120.679 E13.16924
G1 X107.05 Y121.012 E13.18141
G1 X107.18 Y121.269 E13.19098
G1 X107.362 Y121.597 E13.20346
G1 X107.532 Y121.874 E13.21427
G1 X107.923 Y122.427 E13.2368
G1 X109.772 Y122.427 E13.29829
G0 F6000 X110.172 Y122.827
G1 F1200 X110.173 Y119.4 E13.41228
G1 X110.173 Y117.381 E13.47943
G1 X105.838 Y117.381 E13.62361
G1 X105.862 Y117.98 E13.64355
G1 X105.901 Y118.443 E13.65901
G1 X105.985 Y119.022 E13.67846
G1 X106.039 Y119.289 E13.68752
G1 X106.152 Y119.75 E13.70331
G1 X106.262 Y120.124 E13.71628
G1 X106.404 Y120.521 E13.7303
G1 X106.531 Y120.836 E13.7416
G1 X106.689 Y121.185 E13.75434
G1 X106.83 Y121.462 E13.76468
G1 X107.001 Y121.772 E13.77645
G1 X107.197 Y122.092 E13.78893
G1 X107.538 Y122.583 E13.80882
G1 X107.726 Y122.827 E13.81906
G1 X110.172 Y122.827 E13.90042
G0 F6000 X110.572 Y123.227
G1 F1200 X110.573 Y119.4 E14.0277
G1 X110.573 Y116.981 E14.10816
G1 X105.454 Y116.981 E14.27842
G1 X105.447 Y117.612 E14.29941
G1 X105.46 Y117.968 E14.31125
G1 X105.503 Y118.489 E14.32864
G1 X105.591 Y119.09 E14.34884
G1 X105.648 Y119.376 E14.35854
G1 X105.766 Y119.854 E14.37492
G1 X105.882 Y120.247 E14.38855
G1 X106.014 Y120.623 E14.4018
G1 X106.163 Y120.993 E14.41507
G1 X106.328 Y121.358 E14.42839
G1 X106.462 Y121.623 E14.43827
G1 X106.655 Y121.973 E14.45156
G1 X106.861 Y122.311 E14.46473
G1 X107.205 Y122.807 E14.4848
G1 X107.539 Y123.227 E14.50265
G1 X110.572 Y123.227 E14.60353
G0 F6000 X110.972 Y123.627
;TYPE:WALL-OUTER
G1 F1200 X110.973 Y119.4 E14.74412
G1 X110.973 Y116.581 E14.83788
G1 X105.094 Y116.581 E15.03342
G1 X105.052 Y117.157 E15.05263
G1 X105.047 Y117.626 E15.06822
G1 X105.064 Y118.045 E15.08217
G1 X105.105 Y118.535 E15.09853
G1 X105.197 Y119.158 E15.11947
G1 X105.258 Y119.463 E15.12982
G1 X105.38 Y119.958 E15.14677
G1 X105.501 Y120.37 E15.16106
G1 X105.64 Y120.764 E15.17495
G1 X105.795 Y121.15 E15.18879
G1 X105.967 Y121.531 E15.20269
G1 X106.108 Y121.81 E15.21309
G1 X106.309 Y122.174 E15.22692
G1 X106.526 Y122.529 E15.24076
G1 X106.883 Y123.044 E15.2616
G1 X107.128 Y123.361 E15.27492
G1 X107.355 Y123.627 E15.28655
G1 X110.972 Y123.627 E15.40686
G0 F6000 X110.703 Y123.357
G0 X108.107 Y122.327
G0 X108.107 Y122.067
;TYPE:SKIN
G1 F1200 X109.412 Y122.067 E15.45026
G1 X109.412 Y118.142 E15.58081
G1 X106.638 Y118.141 E15.67307
G1 X106.657 Y118.369 E15.68068
G1 X106.749 Y118.986 E15.70143
G1 X106.887 Y119.551 E15.72077
G1 X106.982 Y119.875 E15.732
G1 X107.11 Y120.241 E15.7449
G1 X107.23 Y120.537 E15.75552
