;FLAVOR:Marlin
;TIME:2821
;Filament used: 2.07269m
;Layer height: 0.2
;MINX:100.75
;MINY:105.431
;MINZ:0.2
;MAXX:134.25
;MAXY:137.122
;MAXZ:37.2
;Generated with Cura_SteamEngine main
M140 S80
M105
M190 S80
M104 S240
M105
M109 S240
M82 ;absolute extrusion mode
; Ender 3 Custom Start G-code
G92 E0 ; Reset Extruder
G28 ; Home all axes
G29 ; ABL
G1 Z2.0 F3000 ; Move Z Axis up little to prevent scratching of Heat Bed
G1 X0.1 Y20 Z0.3 F5000.0 ; Move to start position
G1 X0.1 Y200.0 Z0.3 F1500.0 E15 ; Draw the first line
G1 X0.4 Y200.0 Z0.3 F5000.0 ; Move to side a little
G1 X0.4 Y20 Z0.3 F1500.0 E30 ; Draw the second line
G92 E0 ; Reset Extruder
G1 Z2.0 F3000 ; Move Z Axis up little to prevent scratching of Heat Bed
G1 X5 Y20 Z0.3 F5000.0 ; Move over to prevent blob squish
G92 E0
G92 E0
G1 F2700 E-5
;LAYER_COUNT:186
;LAYER:0
M107
G0 F6000 X103.96 Y108.683 Z0.2
G0 X100.751 Y116.94
;TYPE:SKIRT
G1 F2700 E0
G1 F1200 X100.761 Y116.275 E0.02212
G1 X100.815 Y115.338 E0.05334
G1 X100.949 Y114.41 E0.08452
G1 X101.161 Y113.496 E0.11573
G1 X101.45 Y112.604 E0.14692
G1 X101.815 Y111.74 E0.17811
G1 X102.251 Y110.91 E0.20929
G1 X102.757 Y110.12 E0.2405
G1 X103.328 Y109.376 E0.27169
G1 X103.96 Y108.683 E0.30289
G1 X104.649 Y108.047 E0.33407
G1 X105.39 Y107.472 E0.36527
G1 X106.177 Y106.962 E0.39646
G1 X107.005 Y106.521 E0.42766
G1 X107.867 Y106.152 E0.45885
G1 X108.758 Y105.858 E0.49005
G1 X109.67 Y105.64 E0.52124
G1 X110.597 Y105.502 E0.55241
G1 X111.451 Y105.444 E0.58088
G1 X112.08 Y105.431 E0.60181
G1 X114.094 Y105.432 E0.66879
G1 X116.398 Y105.469 E0.74544
G1 X120.608 Y105.431 E0.88547
G1 X122.701 Y105.432 E0.95508
G1 X123.399 Y105.442 E0.9783
G1 X124.335 Y105.496 E1.00948
G1 X125.263 Y105.628 E1.04066
G1 X126.177 Y105.84 E1.07186
G1 X127.069 Y106.129 E1.10305
G1 X127.934 Y106.492 E1.13425
G1 X128.764 Y106.928 E1.16543
G1 X129.555 Y107.433 E1.19665
G1 X130.299 Y108.004 E1.22784
G1 X130.992 Y108.636 E1.25904
G1 X131.629 Y109.324 E1.29022
G1 X132.204 Y110.065 E1.32142
G1 X132.715 Y110.851 E1.3526
G1 X133.157 Y111.679 E1.38382
G1 X133.526 Y112.541 E1.415
G1 X133.821 Y113.431 E1.44619
G1 X134.039 Y114.343 E1.47738
G1 X134.179 Y115.271 E1.50859
G1 X134.237 Y116.132 E1.53729
G1 X134.25 Y116.761 E1.55822
G1 X134.249 Y125.049 E1.83388
G1 X134.239 Y125.769 E1.85783
G1 X134.186 Y126.705 E1.88901
G1 X134.053 Y127.634 E1.92022
G1 X133.842 Y128.547 E1.95139
G1 X133.554 Y129.44 E1.9826
G1 X133.191 Y130.305 E2.0138
G1 X132.755 Y131.135 E2.04498
G1 X132.25 Y131.926 E2.07619
G1 X131.68 Y132.67 E2.10737
G1 X131.049 Y133.364 E2.13856
G1 X130.36 Y134.001 E2.16977
G1 X129.62 Y134.577 E2.20096
G1 X128.834 Y135.088 E2.23214
G1 X128.007 Y135.53 E2.26333
G1 X126.774 Y136.033 E2.30762
G1 X126.264 Y136.206 E2.32554
G1 X125.516 Y136.43 E2.35151
G1 X125.134 Y136.53 E2.36464
G1 X124.332 Y136.712 E2.39199
G1 X123.758 Y136.817 E2.4114
G1 X123.034 Y136.929 E2.43577
G1 X122.027 Y137.037 E2.46945
G1 X120.917 Y137.097 E2.50642
G1 X119.779 Y137.121 E2.54428
G1 X114.99 Y137.122 E2.70357
G1 X114.322 Y137.113 E2.72579
G1 X113.67 Y137.085 E2.74749
G1 X112.998 Y137.036 E2.7699
G1 X112.145 Y136.948 E2.79842
G1 X111.149 Y136.801 E2.83191
G1 X110.28 Y136.63 E2.86137
G1 X109.863 Y136.53 E2.87563
G1 X109.348 Y136.393 E2.89335
G1 X108.94 Y136.274 E2.90749
G1 X108.241 Y136.048 E2.93192
G1 X107.366 Y135.709 E2.96313
G1 X106.523 Y135.298 E2.99433
G1 X105.719 Y134.816 E3.0255
G1 X104.958 Y134.267 E3.05671
G1 X104.247 Y133.655 E3.08792
G1 X103.591 Y132.985 E3.1191
G1 X102.994 Y132.262 E3.15029
G1 X102.461 Y131.49 E3.18149
G1 X101.995 Y130.676 E3.21269
G1 X101.601 Y129.825 E3.24388
G1 X101.28 Y128.944 E3.27507
G1 X101.036 Y128.038 E3.30627
G1 X100.87 Y127.115 E3.33746
G1 X100.771 Y125.841 E3.37997
G1 X100.75 Y124.643 E3.41982
G1 X100.751 Y116.94 E3.67602
G0 F6000 X101.151 Y116.946
G1 F1200 X101.161 Y116.281 E3.69814
G1 X101.215 Y115.362 E3.72876
G1 X101.348 Y114.451 E3.75938
G1 X101.56 Y113.555 E3.79
G1 X101.849 Y112.68 E3.82065
G1 X102.213 Y111.835 E3.85126
G1 X102.648 Y111.024 E3.88186
G1 X103.153 Y110.253 E3.91252
G1 X103.722 Y109.53 E3.94312
G1 X104.352 Y108.858 E3.97376
G1 X105.038 Y108.244 E4.00438
G1 X105.774 Y107.692 E4.03498
G1 X106.556 Y107.205 E4.06562
G1 X107.377 Y106.789 E4.09623
G1 X108.231 Y106.445 E4.12685
G1 X109.111 Y106.176 E4.15746
G1 X110.012 Y105.985 E4.18809
G1 X110.926 Y105.873 E4.21872
G1 X111.462 Y105.844 E4.23657
G1 X112.08 Y105.831 E4.25713
G1 X114.087 Y105.832 E4.32388
G1 X116.395 Y105.869 E4.40066
G1 X120.612 Y105.831 E4.54092
G1 X122.695 Y105.832 E4.6102
G1 X123.393 Y105.842 E4.63342
G1 X124.312 Y105.895 E4.66404
G1 X125.223 Y106.028 E4.69466
G1 X126.119 Y106.239 E4.72527
G1 X126.993 Y106.527 E4.75588
G1 X127.84 Y106.89 E4.78653
G1 X128.651 Y107.325 E4.81714
G1 X129.421 Y107.829 E4.84775
G1 X130.145 Y108.398 E4.87838
G1 X130.817 Y109.028 E4.90901
G1 X131.432 Y109.713 E4.93963
G1 X131.985 Y110.449 E4.97025
G1 X132.472 Y111.23 E5.00086
G1 X132.889 Y112.051 E5.03149
G1 X133.234 Y112.905 E5.06212
G1 X133.503 Y113.785 E5.09273
G1 X133.695 Y114.686 E5.12337
G1 X133.808 Y115.599 E5.15397
G1 X133.837 Y116.143 E5.17209
G1 X133.85 Y116.761 E5.19265
G1 X133.849 Y125.043 E5.46811
G1 X133.839 Y125.763 E5.49206
G1 X133.786 Y126.682 E5.52267
G1 X133.654 Y127.593 E5.55329
G1 X133.443 Y128.49 E5.58394
G1 X133.155 Y129.364 E5.61455
G1 X132.793 Y130.21 E5.64515
G1 X132.358 Y131.022 E5.67579
G1 X131.854 Y131.793 E5.70643
G1 X131.286 Y132.517 E5.73703
G1 X130.657 Y133.189 E5.76765
G1 X129.972 Y133.804 E5.79827
G1 X129.236 Y134.357 E5.82889
G1 X128.455 Y134.845 E5.85952
G1 X127.634 Y135.262 E5.89014
G1 X126.645 Y135.654 E5.92553
G1 X126.135 Y135.827 E5.94344
G1 X125.414 Y136.043 E5.96847
G1 X125.032 Y136.143 E5.98161
G1 X124.25 Y136.321 E6.00828
G1 X123.697 Y136.421 E6.02697
G1 X122.973 Y136.533 E6.05134
G1 X122.002 Y136.638 E6.08382
G1 X120.909 Y136.697 E6.12023
G1 X119.771 Y136.721 E6.15809
G1 X114.995 Y136.722 E6.31694
G1 X114.327 Y136.713 E6.33916
G1 X113.699 Y136.686 E6.36006
G1 X113.027 Y136.637 E6.38247
G1 X112.191 Y136.55 E6.41043
G1 X111.761 Y136.492 E6.42486
G1 X111.21 Y136.406 E6.44341
G1 X110.373 Y136.241 E6.47178
G1 X109.956 Y136.141 E6.48605
G1 X109.46 Y136.009 E6.50312
G1 X109.052 Y135.89 E6.51725
G1 X108.369 Y135.669 E6.54113
G1 X107.511 Y135.336 E6.57174
G1 X106.684 Y134.93 E6.60238
G1 X105.897 Y134.454 E6.63297
G1 X105.153 Y133.911 E6.66361
G1 X104.459 Y133.305 E6.69425
G1 X103.821 Y132.642 E6.72486
G1 X103.242 Y131.926 E6.75548
G1 X102.728 Y131.162 E6.78611
G1 X102.282 Y130.357 E6.81672
G1 X101.907 Y129.516 E6.84734
G1 X101.607 Y128.646 E6.87795
G1 X101.384 Y127.753 E6.90857
G1 X101.239 Y126.843 E6.93921
G1 X101.171 Y125.833 E6.97288
G1 X101.15 Y124.643 E7.01247
G1 X101.151 Y116.946 E7.26847
G0 F6000 X101.551 Y116.952
G1 F1200 X101.561 Y116.287 E7.29059
G1 X101.615 Y115.385 E7.32065
G1 X101.748 Y114.492 E7.35068
G1 X101.959 Y113.614 E7.38071
G1 X102.248 Y112.758 E7.41076
G1 X102.611 Y111.931 E7.4408
G1 X103.045 Y111.14 E7.47081
G1 X103.548 Y110.389 E7.50087
G1 X104.116 Y109.687 E7.5309
G1 X104.743 Y109.037 E7.56094
G1 X105.425 Y108.445 E7.59098
G1 X106.157 Y107.916 E7.62102
G1 X106.933 Y107.454 E7.65106
G1 X107.747 Y107.063 E7.68109
G1 X108.592 Y106.744 E7.71113
G1 X109.462 Y106.502 E7.74117
G1 X110.35 Y106.338 E7.7712
G1 X111.473 Y106.244 E7.80868
G1 X112.08 Y106.231 E7.82888
G1 X114.081 Y106.232 E7.89543
G1 X116.392 Y106.269 E7.9723
G1 X120.615 Y106.231 E8.11277
G1 X122.689 Y106.232 E8.18175
G1 X123.387 Y106.242 E8.20497
G1 X124.289 Y106.295 E8.23502
G1 X125.182 Y106.427 E8.26504
G1 X126.06 Y106.638 E8.29508
G1 X126.916 Y106.926 E8.32512
G1 X127.743 Y107.288 E8.35514
G1 X128.535 Y107.723 E8.3852
G1 X129.286 Y108.225 E8.41524
G1 X129.989 Y108.792 E8.44528
G1 X130.639 Y109.419 E8.47532
G1 X131.231 Y110.101 E8.50536
G1 X131.761 Y110.832 E8.53539
G1 X132.223 Y111.608 E8.56542
G1 X132.616 Y112.421 E8.59546
G1 X132.934 Y113.266 E8.62549
G1 X133.177 Y114.136 E8.65553
G1 X133.342 Y115.024 E8.68557
G1 X133.437 Y116.154 E8.72329
G1 X133.45 Y116.761 E8.74348
G1 X133.449 Y125.038 E9.01878
G1 X133.439 Y125.758 E9.04273
G1 X133.387 Y126.659 E9.07274
G1 X133.254 Y127.553 E9.1028
G1 X133.044 Y128.431 E9.13283
G1 X132.756 Y129.287 E9.16287
G1 X132.394 Y130.114 E9.1929
G1 X131.961 Y130.906 E9.22292
G1 X131.459 Y131.657 E9.25296
G1 X130.892 Y132.36 E9.283
G1 X130.265 Y133.011 E9.31306
G1 X129.584 Y133.603 E9.34308
G1 X128.852 Y134.133 E9.37313
G1 X128.077 Y134.596 E9.40316
G1 X127.264 Y134.989 E9.43319
G1 X126.517 Y135.275 E9.4598
G1 X126.007 Y135.448 E9.47771
G1 X125.313 Y135.656 E9.50181
G1 X124.931 Y135.756 E9.51494
G1 X124.168 Y135.929 E9.54096
G1 X123.635 Y136.026 E9.55898
G1 X122.911 Y136.138 E9.58335
G1 X121.978 Y136.239 E9.61456
G1 X121.311 Y136.28 E9.63679
G1 X120.9 Y136.297 E9.65047
G1 X119.762 Y136.321 E9.68833
G1 X115.001 Y136.322 E9.84668
G1 X114.333 Y136.313 E9.8689
G1 X113.728 Y136.287 E9.88904
G1 X113.056 Y136.238 E9.91145
G1 X112.236 Y136.153 E9.93887
G1 X111.272 Y136.011 E9.97128
G1 X110.466 Y135.852 E9.9986
G1 X110.049 Y135.752 E10.01286
G1 X109.572 Y135.625 E10.02928
G1 X109.164 Y135.506 E10.04342
G1 X108.497 Y135.29 E10.06674
G1 X107.656 Y134.963 E10.09675
G1 X106.846 Y134.562 E10.12681
G1 X106.075 Y134.092 E10.15684
G1 X105.349 Y133.555 E10.18688
G1 X104.673 Y132.956 E10.21692
G1 X104.053 Y132.3 E10.24694
G1 X103.493 Y131.591 E10.27699
G1 X102.998 Y130.836 E10.30702
G1 X102.572 Y130.039 E10.33707
G1 X102.218 Y129.209 E10.36709
G1 X101.939 Y128.35 E10.39713
G1 X101.736 Y127.47 E10.42716
G1 X101.613 Y126.575 E10.45721
G1 X101.571 Y125.826 E10.48216
G1 X101.55 Y124.643 E10.52151
G1 X101.551 Y116.952 E10.77732
G1 F2700 E5.77732
;MESH:Distal.stl
G0 F6000 X111.085 Y116.952
G0 X112.17 Y116.952
G0 X113.322 Y124.431
G0 X114.469 Y124.722
;TYPE:WALL-INNER
G1 F2700 E10.77732
G1 F1200 X120.686 Y124.721 E10.9841
G1 X121.206 Y124.676 E11.00146
G1 X121.516 Y124.634 E11.01186
G1 X121.85 Y124.57 E11.02317
G1 X121.85 Y121.145 E11.13709
G1 F1069 X121.801 Y120.759 E11.15162
G1 F893.9 X121.762 Y120.586 E11.15953
G1 F902.3 X121.646 Y120.842 E11.17197
G1 F1081.1 X121.529 Y121.099 E11.18239
G1 F1200 X121.443 Y121.318 E11.19022
G1 X121.221 Y121.769 E11.20694
G1 X120.942 Y122.19 E11.22373
G1 X120.68 Y122.52 E11.23775
G1 X120.498 Y122.71 E11.2465
G1 X120.121 Y123.035 E11.26306
G1 X119.769 Y123.285 E11.27742
G1 X119.169 Y123.606 E11.30005
G1 X118.494 Y123.827 E11.32367
G1 X117.917 Y123.914 E11.34308
G1 X117.254 Y123.938 E11.36514
G1 X116.634 Y123.847 E11.38599
G1 X116.249 Y123.743 E11.39925
G1 X115.681 Y123.539 E11.41932
G1 X115.14 Y123.226 E11.44011
G1 X114.696 Y122.887 E11.45869
G1 X114.371 Y122.574 E11.4737
G1 X114.022 Y122.147 E11.49204
G1 X113.71 Y121.661 E11.51125
G1 X113.475 Y121.094 E11.53167
G1 X113.348 Y120.679 E11.5461
G1 F1050.3 X113.208 Y120.28 E11.56217
G1 X113.151 Y120.699 E11.57824
G1 F1200 X113.152 Y124.569 E11.70695
G1 X113.499 Y124.635 E11.7187
G1 X113.819 Y124.679 E11.72944
G1 X114.469 Y124.722 E11.75111
G0 F6000 X114.458 Y125.122
G1 F1200 X120.691 Y125.121 E11.95842
G1 X121.231 Y125.076 E11.97644
G1 X121.712 Y125.011 E11.99259
G1 X122.25 Y124.889 E12.01094
G1 X122.25 Y117.869 E12.24442
G1 X122.25 Y117.431 E12.25899
G1 X121.375 Y117.431 E12.28809
G1 X121.376 Y119.69 E12.36323
G1 X121.343 Y120.147 E12.37847
G1 X121.282 Y120.502 E12.39045
G1 X121.126 Y121.055 E12.40956
G1 X120.874 Y121.568 E12.42857
G1 X120.629 Y121.941 E12.44341
G1 X120.31 Y122.344 E12.46051
G1 X119.87 Y122.724 E12.47984
G1 X119.555 Y122.945 E12.49264
G1 X119.009 Y123.238 E12.51325
G1 X118.397 Y123.438 E12.53466
G1 X117.83 Y123.517 E12.55371
G1 X117.275 Y123.537 E12.57218
G1 X116.661 Y123.44 E12.59285
G1 X116.265 Y123.328 E12.60654
G1 X115.841 Y123.171 E12.62158
G1 X115.342 Y122.88 E12.64079
G1 X114.913 Y122.541 E12.65898
G1 X114.623 Y122.251 E12.67262
G1 X114.343 Y121.908 E12.68734
G1 X114.066 Y121.473 E12.7045
G1 X113.855 Y120.971 E12.72261
G1 X113.74 Y120.597 E12.73562
G1 X113.634 Y120.088 E12.75291
G1 X113.627 Y117.431 E12.84129
G1 X112.75 Y117.431 E12.87046
G1 X112.75 Y124.889 E13.11851
G1 X113.309 Y125.013 E13.13755
G1 X113.773 Y125.077 E13.15313
G1 X114.022 Y125.1 E13.16145
G1 X114.458 Y125.122 E13.17597
G0 F6000 X114.448 Y125.522
G1 F1200 X120.714 Y125.521 E13.38438
G1 X121.274 Y125.474 E13.40307
G1 X121.654 Y125.422 E13.41583
G1 X121.913 Y125.376 E13.42458
G1 X122.333 Y125.281 E13.4389
G1 X122.65 Y125.196 E13.44981
G1 X122.65 Y117.869 E13.69351
G1 X122.65 Y117.031 E13.72138
G1 X120.975 Y117.031 E13.77709
G1 X120.976 Y119.69 E13.86553
G1 X120.949 Y120.079 E13.8785
G1 X120.888 Y120.433 E13.89045
G1 X120.749 Y120.916 E13.90717
G1 X120.508 Y121.397 E13.92506
G1 X120.315 Y121.693 E13.93681
G1 X120.019 Y122.067 E13.95268
G1 X119.619 Y122.412 E13.97024
G1 X119.371 Y122.586 E13.98032
G1 X118.849 Y122.87 E14.00009
G1 X118.276 Y123.051 E14.02007
G1 X117.879 Y123.111 E14.03343
G1 X117.304 Y123.137 E14.05257
G1 X116.765 Y123.053 E14.07071
G1 X116.404 Y122.953 E14.08317
G1 X116.014 Y122.808 E14.09701
G1 X115.612 Y122.574 E14.11248
G1 X115.241 Y122.296 E14.1279
G1 X114.981 Y122.05 E14.13981
G1 X114.69 Y121.7 E14.15495
G1 X114.424 Y121.292 E14.17115
G1 X114.236 Y120.849 E14.18715
G1 X114.132 Y120.515 E14.19879
G1 X114.034 Y120.048 E14.21466
G1 X114.026 Y117.031 E14.315
G1 X112.35 Y117.031 E14.37075
G1 X112.35 Y125.194 E14.64225
G1 X112.674 Y125.282 E14.65342
G1 X113.108 Y125.379 E14.66821
G1 X113.391 Y125.428 E14.67776
G1 X113.728 Y125.474 E14.68907
G1 X113.993 Y125.499 E14.69793
G1 X114.448 Y125.522 E14.71308
G0 F6000 X114.438 Y125.922
;TYPE:WALL-OUTER
G1 F1200 X120.626 Y125.921 E14.91889
G1 X120.889 Y125.908 E14.92765
G1 X121.318 Y125.872 E14.94197
G1 X121.722 Y125.816 E14.95554
G1 X122.001 Y125.766 E14.96496
G1 X122.437 Y125.667 E14.97983
G1 X122.799 Y125.57 E14.9923
G1 X123.05 Y125.488 E15.00108
G1 X123.05 Y117.869 E15.25449
G1 X123.05 Y116.631 E15.29567
G1 X120.575 Y116.631 E15.37798
G1 X120.575 Y119.703 E15.48016
G1 X120.555 Y120.011 E15.49043
G1 X120.494 Y120.364 E15.50234
G1 X120.366 Y120.788 E15.51707
G1 X120.182 Y121.162 E15.53093
G1 X120.001 Y121.445 E15.54211
G1 X119.739 Y121.776 E15.55615
G1 X119.368 Y122.101 E15.57255
G1 X119.125 Y122.268 E15.58236
G1 X118.679 Y122.504 E15.59914
G1 X118.207 Y122.657 E15.61564
G1 X117.798 Y122.717 E15.62939
G1 X117.342 Y122.735 E15.64457
G1 X116.869 Y122.667 E15.66047
G1 X116.561 Y122.584 E15.67108
G1 X116.202 Y122.451 E15.68381
G1 X115.814 Y122.228 E15.69869
G1 X115.486 Y121.98 E15.71237
G1 X115.243 Y121.745 E15.72361
G1 X115 Y121.447 E15.7364
G1 X114.772 Y121.087 E15.75058
G1 X114.617 Y120.727 E15.76361
G1 X114.529 Y120.453 E15.77318
G1 X114.436 Y120.016 E15.78804
G1 X114.425 Y116.631 E15.90063
G1 X111.95 Y116.631 E15.98295
G1 X111.95 Y125.486 E16.27747
G1 X112.209 Y125.57 E16.28652
G1 X112.55 Y125.664 E16.29829
G1 X113.03 Y125.772 E16.31465
G1 X113.308 Y125.821 E16.32404
G1 X113.682 Y125.872 E16.3366
G1 X113.964 Y125.898 E16.34601
G1 X114.438 Y125.922 E16.3618
G0 F6000 X114.455 Y125.224
G0 X113.322 Y124.431
G0 X113.208 Y120.28
;TYPE:WALL-INNER
G1 F961.9 X113.192 Y119.985 E16.37406
G1 F993.8 X113.191 Y118.927 E16.41655
G1 F997.9 X113.189 Y117.869 E16.45886
G0 F6000 X114.021 Y120.962
G0 X114.474 Y121.812
G0 X115.06 Y122.459
G0 X115.913 Y123.025
G0 X116.754 Y123.297
G0 X117.297 Y123.376
G0 X118.366 Y123.278
G0 X118.946 Y123.088
G0 X119.757 Y122.608
G0 X120.189 Y122.234
G0 X120.733 Y121.487
G0 X120.925 Y121.099
G0 X121.812 Y117.869
G1 F1010.5 X121.813 Y119.69 E16.53079
G1 F989.7 X121.802 Y120.067 E16.546
G1 F930.2 X121.782 Y120.326 E16.55714
G1 F863.3 X121.762 Y120.586 E16.5692
G0 F6000 X121.68 Y124.433
